X:1
T:Whale Fishing
M:4/4
L:1/4
K:F
G/2-F/2| D G G G| A A/2G/2 F A| B d c/2B/2 A| G3 B/2c/2| d d/2B/2 c d|\
G/2-A/2G/2-F/2 D C| D G G G| AA/2-G/2 F A| B dc/2-B/2 A| G3||
